X: 1
T: Clydeside Lassies
T: 8x32R 3C (Border Book)
T: 1+2 C4H, 1 DMU C2, 1+3 C4H, 1+2 P
P: Clydeside Lassies
C: From Barbara McOwen/Tullochgorum "Shining Lights" cd
M: C
R: reel
L: 1/8
K: F
B| "F"AFcF "Bb"dFcF|"F"AFcF "C"ABcB|"F"AFcF "Bb"dFcF|"Gm"BAGA "C"BcdB|"F"AFcF "Bb"dFcF|"F"AFcF "C" ABcB|
"F"AFcF dFcF|"Gm"BAGA "C"Bcde||"F"fgag f2 cf|"Bb"gfga "C"baga|"F"fgag fcAc|
"Gm"BAGA "C"Bcde|"F"fgag f2 cf|"Bb"gfga "C"baga|"F"fgaf gefc|"Gm"BAGA "C"BcdB |]
